X:25
T:Quick Step
S:Ashworth's Instructor, p. 37
M:6/8
%%MIDI program 72
%%MIDI transpose 8
L:1/8
K:D
A|dcd AFD|BdB AFD|GBG FAF|EEE E2A|dcd AFD|BdB AFD|Bcd Agf|
edc d2::(d/e/)|fdf ecA|BdB AFD|fdf ecA|BBB B2g|fdf ecA|BdB AFD|GBG EFG|FDD D2::
F|B2c d2e|fef def|ede cde|dBB B2F|B2c d2e|fef def|dgf edc|BBB !D.C.!B2:|]

